X:6
T:Ambie and Dolly
R:reel
C:Paul S. Cranford
O:Cape Breton Island
S:http://www.cranfordpub.com
D:currently unrecorded
B:currently unpublished in book form
Z:psc
H:                                                        copyrights Cranford Publications, SOCAN
L:1/8
Q:333
M:C|
K:Amix
A2 AB cABc|AEFD E2 CE|A2 AB cABc|ecBA B2 Bc|
A2 AB cABc|AEFD E2 CA,|D2 FD EA,CA,|[1B,G,DB, A,2 A,E:|[2B,G,DB, A,2 A,||
|:B,|C2 EC DFAF|E2 CA, B,G,G,B,|CEA,C DFAF|EAFD CA,A,B,|
C2 EC DFAF|E2 CA, B,G,G,B,|A,2 AE FDAF|[1ECDB, CA,A,:|[2Eaed ceBc|]
